web/ui/src/components/theme/button/svgs/back.svg

<svg height="16" viewBox="0 0 16 16" width="16" xmlns="http://www.w3.org/2000/svg"><g fill="none"><path d="m0 0h16v16h-16z" fill="#000" opacity="0"/><path d="m8 15c-3.85998437 0-7-3.1400156-7-7 0-3.85998437 3.14001563-7 7-7 3.8599844 0 7 3.14001563 7 7 0 3.8599844-3.1400156 7-7 7zm0-13c-3.3085 0-6 2.6915-6 6s2.6915 6 6 6 6-2.6915 6-6-2.6915-6-6-6zm-1.96267516 5.80261618c.00051562-.00198438.00301562-.004.004-.006.024-.0565.05701562-.1105.103-.157.00051562-.00051563.001-.00051563.0015-.001.00051562-.00051563.00051562-.001.001-.0015l2.483-2.48998438c.195-.19551562.51148437-.1965.707-.001.19551562.195.196.51148438.001.707l-2.1295 2.1355 2.147 2.1235c.1965.1944844.19801562.5105.004.707-.09748438.0989844-.2265.1485-.35548438.1485-.127 0-.254-.0484844-.35151562-.1445l-2.50398438-2.4765c-.1485-.14654687-.18551562-.3625625-.111-.54404687z" fill="#595959"/></g></svg>

<?xml version="1.0" encoding="UTF-8"?>
<svg width="16px" height="16px" viewBox="0 0 16 16" version="1.1" xmlns="http://www.w3.org/2000/svg" xmlns:xlink="http://www.w3.org/1999/xlink">
    <title>back</title>
    <g id="页面-1" stroke="none" stroke-width="1" fill="none" fill-rule="evenodd">
        <g id="系统设计规范" transform="translate(-356.000000, -5253.000000)" fill-rule="nonzero">
            <g id="back" transform="translate(356.000000, 5253.000000)">
                <rect id="矩形" fill="#000000" opacity="0" x="0" y="0" width="16" height="16"></rect>
                <path d="M8,15 C4.14001563,15 1,11.8599844 1,8 C1,4.14001563 4.14001563,1 8,1 C11.8599844,1 15,4.14001563 15,8 C15,11.8599844 11.8599844,15 8,15 Z M8,2 C4.6915,2 2,4.6915 2,8 C2,11.3085 4.6915,14 8,14 C11.3085,14 14,11.3085 14,8 C14,4.6915 11.3085,2 8,2 Z M6.03732484,7.80261618 C6.03784046,7.8006318 6.04034046,7.79861618 6.04132484,7.79661618 C6.06532484,7.74011618 6.09834046,7.68611618 6.14432484,7.63961618 C6.14484046,7.63910055 6.14532484,7.63910055 6.14582484,7.63861618 C6.14634046,7.63810055 6.14634046,7.63761618 6.14682484,7.63711618 L8.62982484,5.1471318 C8.82482484,4.95161618 9.14130921,4.9506318 9.33682484,5.1461318 C9.53234046,5.3411318 9.53282484,5.65761618 9.33782484,5.8531318 L7.20832484,7.9886318 L9.35532484,10.1121318 C9.55182484,10.3066162 9.55334046,10.6226318 9.35932484,10.8191318 C9.26184046,10.9181162 9.13282484,10.9676318 9.00384046,10.9676318 C8.87684046,10.9676318 8.74984046,10.9191474 8.65232484,10.8231318 L6.14834046,8.3466318 C5.99984046,8.20008493 5.96282484,7.9840693 6.03734046,7.80258493 L6.03732484,7.80261618 Z" id="形状" fill="#595959"></path>
            </g>
        </g>
    </g>
</svg>
